X: 20768
T: Johnny Lad
R: reel
M: 4/4
K: Gmajor
B2 BG A2 Ad|BABd efgd|B2 BG A2 Ad|BABd e2 e2:|
efge afdf|efge f2 f2|efge afdf|edBd e2 e2:|

